visual_sfsd/static/imgs/404/display-mobile/bg.svg

<?xml version="1.0" encoding="utf-8"?>
<!-- Generator: Adobe Illustrator 25.0.0, SVG Export Plug-In . SVG Version: 6.00 Build 0)  -->
<svg version="1.1" id="visual" xmlns="http://www.w3.org/2000/svg" xmlns:xlink="http://www.w3.org/1999/xlink" x="0px" y="0px"
	 viewBox="0 0 1920 1080" style="enable-background:new 0 0 1920 1080;" xml:space="preserve">
<style type="text/css">
	.st0{fill:#BA3838;}
	.st1{fill:#F5730A;}
	.st2{fill:#DA5B09;}
	.st3{fill:#BE4407;}
	.st4{fill:#A32D04;}
	.st5{fill:#871400;}
</style>
<rect class="st0" width="1920" height="1080"/>
<path class="st1" d="M0,794l274-27l275,16l274-82l274-47l274,47l275-16l274-29v425h-274h-275h-274H823H549H274H0V794z"/>
<path class="st2" d="M0,836l274,8l275-114l274,55l274,42l274-8l275,4l274-2v260h-274h-275h-274H823H549H274H0V836z"/>
<path class="st3" d="M0,894l274-29l275-13l274-10l274,72l274-121l275,22l274,103v163h-274h-275h-274H823H549H274H0V894z"/>
<path class="st4" d="M0,910l274,34l275-47l274-26l274,57l274-47l275,71l274-37v166h-274h-275h-274H823H549H274H0V910z"/>
<path class="st5" d="M0,995l274-41l275,18l274,21l274-19l274,50l275-68l274,61v64h-274h-275h-274H823H549H274H0V995z"/>
</svg>

<svg id="visual" viewBox="0 0 1920 1080" width="1920" height="1080" xmlns="http://www.w3.org/2000/svg" xmlns:xlink="http://www.w3.org/1999/xlink" version="1.1"><rect x="0" y="0" width="1920" height="1080" fill="#931C1C"></rect><path d="M0 794L274 767L549 783L823 701L1097 654L1371 701L1646 685L1920 656L1920 1081L1646 1081L1371 1081L1097 1081L823 1081L549 1081L274 1081L0 1081Z" fill="#f5730a"></path><path d="M0 836L274 844L549 730L823 785L1097 827L1371 819L1646 823L1920 821L1920 1081L1646 1081L1371 1081L1097 1081L823 1081L549 1081L274 1081L0 1081Z" fill="#da5b09"></path><path d="M0 894L274 865L549 852L823 842L1097 914L1371 793L1646 815L1920 918L1920 1081L1646 1081L1371 1081L1097 1081L823 1081L549 1081L274 1081L0 1081Z" fill="#be4407"></path><path d="M0 910L274 944L549 897L823 871L1097 928L1371 881L1646 952L1920 915L1920 1081L1646 1081L1371 1081L1097 1081L823 1081L549 1081L274 1081L0 1081Z" fill="#a32d04"></path><path d="M0 995L274 954L549 972L823 993L1097 974L1371 1024L1646 956L1920 1017L1920 1081L1646 1081L1371 1081L1097 1081L823 1081L549 1081L274 1081L0 1081Z" fill="#871400"></path></svg>
